docs/static/img/logos/aws_kinesis_firehose.svg

<?xml version="1.0" encoding="UTF-8"?>
<svg width="64px" height="64px" viewBox="0 0 64 64" version="1.1" xmlns="http://www.w3.org/2000/svg" xmlns:xlink="http://www.w3.org/1999/xlink">
    <!-- Generator: Sketch 63.1 (92452) - https://sketch.com -->
    <title>Icon</title>
    <desc>Created with Sketch.</desc>
    <g id="Icon" stroke="none" stroke-width="1" fill="none" fill-rule="evenodd">
        <g id="Amazon-Kinesis-Data-Firehose_dark-bg" fill="#000000" fill-rule="nonzero">
            <g id="Product_Icon">
                <path d="M32,19.3882353 L25.7254902,19.3882353 C25.032427,19.3882353 24.4705882,19.950074 24.4705882,20.6431373 L24.4705882,43.2313725 C24.4705882,43.9244358 25.032427,44.4862745 25.7254902,44.4862745 L32,44.4862745 C32.6930632,44.4862745 33.254902,43.9244358 33.254902,43.2313725 L33.254902,20.6431373 C33.254902,19.950074 32.6930632,19.3882353 32,19.3882353 Z M30.745098,41.9764706 L26.9803922,41.9764706 L26.9803922,21.8980392 L30.745098,21.8980392 L30.745098,41.9764706 Z" id="Shape"></path>
                <path d="M47.334902,25.6878431 L33.254902,22.5882353 L32.2760784,22.387451 C31.9027688,22.2997806 31.5098629,22.3876066 31.2094118,22.6258824 C30.9179269,22.862331 30.74758,23.2168367 30.7449862,23.5921569 L30.7449862,40.307451 C30.7399764,40.6915564 30.9110632,41.0568498 31.2094118,41.2988235 C31.4387239,41.4675178 31.7153338,41.5597211 32,41.5623529 L32.2760784,41.5623529 L33.254902,41.3364706 L47.334902,38.2117647 C47.9186228,38.0803085 48.3283446,37.5550242 48.3137255,36.9568627 L48.3137255,26.9176471 C48.3163739,26.3288416 47.9092887,25.8173757 47.334902,25.6878431 L47.334902,25.6878431 Z M45.8039216,35.9654902 L33.254902,38.7513725 L33.254902,25.0980392 L45.8039216,27.8964706 L45.8039216,35.9654902 Z" id="Shape"></path>
                <path d="M63.372549,25.0980392 L63.372549,27.7333333 C59.2902999,28.8866904 55.0654764,29.4570416 50.8235294,29.427451 L50.8235294,26.9176471 C55.0745428,26.9500569 59.3058151,26.3365224 63.372549,25.0980392 L63.372549,25.0980392 Z" id="Path"></path>
                <path d="M63.372549,29.9921569 L63.372549,32.5019608 C59.2073798,32.9836498 55.0162803,33.2057781 50.8235294,33.1670588 L50.8235294,30.6572549 C55.0164762,30.7051687 59.2081568,30.4830097 63.372549,29.9921569 L63.372549,29.9921569 Z" id="Path"></path>
                <path d="M63.372549,31.5733333 L63.372549,34.0831373 C59.21817,33.4672309 55.0232911,33.1651996 50.8235294,33.1796078 L50.8235294,30.6698039 C55.0232667,30.6561075 59.2180922,30.9581349 63.372549,31.5733333 L63.372549,31.5733333 Z" id="Path"></path>
                <path d="M63.372549,36.2039216 L63.372549,38.9019608 C59.317076,37.6037317 55.0816477,36.9557111 50.8235294,36.9819608 L50.8235294,34.4721569 C55.0685648,34.4349816 59.2962456,35.0184015 63.372549,36.2039216 L63.372549,36.2039216 Z" id="Path"></path>
                <path d="M21.9607843,25.6627451 L21.9607843,28.172549 C14.4850141,27.7781535 7.19381011,25.7065938 0.62745098,22.1113725 L0.62745098,19.174902 C6.16156863,22.7890196 13.5278431,24.96 21.9607843,25.6627451 Z" id="Path"></path>
                <path d="M21.9607843,30.6572549 L21.9607843,33.1670588 C18.3215686,33.0039216 14.1803922,32.665098 10.0141176,32.0627451 C6.84398488,31.6323907 3.70755513,30.9824621 0.62745098,30.1176471 L0.62745098,27.52 C7.58800772,29.4127542 14.7500086,30.4659896 21.9607843,30.6572549 L21.9607843,30.6572549 Z" id="Path"></path>
                <path d="M21.9607843,30.9709804 L21.9607843,33.4807843 C14.7505454,33.678241 7.58927612,34.7313689 0.62745098,36.6180392 L0.62745098,34.0203922 C3.71460662,33.1525929 6.85988981,32.5067614 10.0392157,32.0878431 C14.1803922,31.4729412 18.3215686,31.1466667 21.9607843,30.9709804 Z" id="Path"></path>
                <path d="M21.9607843,21.5341176 L21.9607843,24.0439216 C4.65568627,22.0360784 0.740392157,13.1639216 0.740392157,5.60941176 C0.740392157,5.32078431 0.740392157,0.589803922 0.740392157,0.589803922 L3.25019608,0.589803922 L3.25019608,0.589803922 C3.25019608,0.865882353 3.25019608,5.38352941 3.25019608,5.67215686 C3.25019608,12.1223529 6.71372549,19.6643137 21.9607843,21.5341176 Z" id="Path"></path>
                <path d="M21.9607843,35.8776471 L21.9607843,38.387451 C13.5403922,39.0901961 6.17411765,41.3239216 0.62745098,44.9129412 L0.62745098,41.9890196 C7.19356637,38.3858281 14.4827878,36.2976805 21.9607843,35.8776471 Z" id="Path"></path>
                <path d="M21.9607843,40.0564706 L21.9607843,42.5662745 C12.2227451,43.7584314 3.25019608,47.7239216 3.25019608,58.252549 C3.25019608,58.3278431 3.25019608,58.7168627 3.25019608,59.2313725 C3.25019608,60.3231373 3.25019608,62.8705882 3.25019608,63.1843137 L2.22117647,63.2721569 L0.752941176,63.385098 C0.746375798,63.3477372 0.746375798,63.3095177 0.752941176,63.2721569 C0.752941176,62.9709804 0.752941176,62.1552941 0.752941176,59.2062745 C0.752941176,58.6792157 0.752941176,58.3278431 0.752941176,58.252549 C0.740392157,50.7984314 4.65568627,42.0517647 21.9607843,40.0564706 Z" id="Path"></path>
            </g>
        </g>
    </g>
</svg>

<svg width="64" height="64" viewBox="0 0 64 64" xmlns="http://www.w3.org/2000/svg">
  <g fill="#000000" fill-rule="nonzero">
    <path d="M32 19.388h-6.275c-.693 0-1.254.562-1.254 1.255v22.588c0 .693.561 1.255 1.254 1.255H32c.693 0 1.255-.562 1.255-1.255V20.643c0-.693-.562-1.255-1.255-1.255zm-1.255 22.588H26.98V21.898h3.765v20.078z"/>
    <path d="M47.335 25.688l-14.08-3.1-.979-.2c-.373-.088-.766 0-1.067.238a1.255 1.255 0 00-.464.966v16.715c-.005.385.166.75.464.992.23.169.506.26.791.263h.276l.979-.226 14.08-3.124c.584-.132.993-.657.979-1.255v-10.04a1.255 1.255 0 00-.98-1.23zm-1.531 10.277l-12.55 2.786V25.098l12.55 2.798v8.07zM63.373 25.098v2.635a45 45 0 01-12.55 1.694v-2.51a41.976 41.976 0 0012.55-1.819zM63.373 29.992v2.51c-4.166.482-8.357.704-12.55.665v-2.51a97.669 97.669 0 0012.55-.665z"/>
    <path d="M63.373 31.573v2.51a83.614 83.614 0 00-12.55-.903v-2.51c4.2-.014 8.395.288 12.55.903zM63.373 36.204v2.698a40.345 40.345 0 00-12.55-1.92v-2.51a43.57 43.57 0 0112.55 1.732zM21.96 25.663v2.51A49.895 49.895 0 01.628 22.11v-2.936c5.535 3.614 12.9 5.785 21.334 6.488zM21.96 30.657v2.51c-3.638-.163-7.78-.502-11.946-1.104a69.12 69.12 0 01-9.387-1.945V27.52a90.44 90.44 0 0021.334 3.137z"/>
    <path d="M21.96 30.971v2.51A91.093 91.093 0 00.628 36.618V34.02a67.238 67.238 0 019.412-1.932c4.141-.615 8.283-.941 11.922-1.117zM21.96 21.534v2.51C4.657 22.036.74 13.164.74 5.609V.59h2.51v5.083c0 6.45 3.464 13.992 18.71 15.862zM21.96 35.878v2.51c-8.42.702-15.786 2.936-21.333 6.525v-2.924a50.196 50.196 0 0121.334-6.111zM21.96 40.056v2.51c-9.737 1.192-18.71 5.158-18.71 15.687v4.931l-1.029.088-1.468.113a.326.326 0 010-.113v-4.066-.953C.74 50.798 4.656 42.052 21.96 40.056z"/>
  </g>
</svg>
